dist/img/common/svg/ic_linkedin.svg

<svg width="46" height="46" viewBox="0 0 46 46" fill="none" xmlns="http://www.w3.org/2000/svg">
<rect width="46" height="46" rx="22.5" fill="#0077B5"/>
<path d="M16.9245 32.0003H12.3634V17.98H16.9245V32.0003ZM14.6415 16.0675C13.183 16.0675 12 14.9143 12 13.5221C12 12.8534 12.2783 12.2121 12.7737 11.7392C13.269 11.2664 13.9409 11.0007 14.6415 11.0007C15.342 11.0007 16.0139 11.2664 16.5093 11.7392C17.0046 12.2121 17.2829 12.8534 17.2829 13.5221C17.2829 14.9143 16.0995 16.0675 14.6415 16.0675ZM33.9951 32.0003H29.4438V25.1753C29.4438 23.5487 29.4095 21.4628 27.0725 21.4628C24.7011 21.4628 24.3377 23.23 24.3377 25.0581V32.0003H19.7815V17.98H24.156V19.8925H24.2198C24.8287 18.7909 26.3162 17.6284 28.5354 17.6284C33.1514 17.6284 34 20.53 34 24.2987V32.0003H33.9951Z" fill="white"/>
</svg>

<svg width="46" height="46" viewBox="0 0 46 46" fill="none" xmlns="http://www.w3.org/2000/svg"><rect width="46" height="46" rx="22.5" fill="#0077B5"/><path d="M16.924 32h-4.56V17.98h4.56V32zm-2.282-15.933c-1.459 0-2.642-1.153-2.642-2.545 0-.669.278-1.31.774-1.783a2.707 2.707 0 011.868-.738c.7 0 1.372.265 1.867.738.496.473.774 1.114.774 1.783 0 1.392-1.184 2.545-2.642 2.545zM33.995 32h-4.551v-6.825c0-1.626-.034-3.712-2.371-3.712-2.372 0-2.735 1.767-2.735 3.595V32h-4.556V17.98h4.374v1.912h.064c.609-1.101 2.096-2.264 4.315-2.264 4.616 0 5.465 2.902 5.465 6.67V32h-.005z" fill="#fff"/></svg>
